resources/icons/scopy-light/icons/signal_generator.svg

<?xml version="1.0" encoding="UTF-8"?>
<svg width="20px" height="16px" viewBox="0 0 20 16" version="1.1" xmlns="http://www.w3.org/2000/svg" xmlns:xlink="http://www.w3.org/1999/xlink">
    <title>signalD</title>
    <g id="signalD" stroke="none" stroke-width="1" fill="none" fill-rule="evenodd">
        <path d="M6,16 C5.91496854,16.0013915 5.83035235,15.9878529 5.75,15.96 C5.31022159,15.8486422 5.00163786,15.4536551 5,15 L5,4.77 L2.87,8.49 C2.69448591,8.80572139 2.36122572,9.00108081 2,9 L0,9 L0,7 L1.42,7 L5.13,0.51 C5.35563207,0.114223542 5.82024755,-0.0790236067 6.26,0.04 C6.69766458,0.152384157 7.00273015,0.548144906 7,1 L7,11.23 L13.13,0.51 C13.3556321,0.114223542 13.8202476,-0.0790236067 14.26,0.04 C14.6976646,0.152384157 15.0027302,0.548144906 15,1 L15,11.23 L17.13,7.5 C17.309341,7.18936581 17.6413152,6.99857599 18,7 L20,7 L20,9 L18.58,9 L14.87,15.49 C14.6463901,15.884573 14.1852391,16.0792568 13.7465207,15.9642985 C13.3078023,15.8493402 13.0013803,15.4535277 13,15 L13,4.77 L6.87,15.49 C6.69322588,15.8044869 6.36076408,15.9993783 6,16 L6,16 Z" id="signal" fill="#000000"></path>
    </g>
</svg>

<?xml version="1.0" encoding="UTF-8"?>
<svg width="20px" height="16px" version="1.1" viewBox="0 0 20 16" xmlns="http://www.w3.org/2000/svg">
 <g fill="#000" opacity=".6" fill-rule="evenodd">
  <path d="m6 16c-0.085031 0.0013915-0.16965-0.012147-0.25-0.04-0.43978-0.11136-0.74836-0.50634-0.75-0.96v-10.23l-2.13 3.72c-0.17551 0.31572-0.50877 0.51108-0.87 0.51h-2v-2h1.42l3.71-6.49c0.22563-0.39578 0.69025-0.58902 1.13-0.47 0.43766 0.11238 0.74273 0.50814 0.74 0.96v10.23l6.13-10.72c0.22563-0.39578 0.69025-0.58902 1.13-0.47 0.43766 0.11238 0.74273 0.50814 0.74 0.96v10.23l2.13-3.73c0.17934-0.31063 0.51132-0.50142 0.87-0.5h2v2h-1.42l-3.71 6.49c-0.22361 0.39457-0.68476 0.58926-1.1235 0.4743s-0.74514-0.51077-0.74652-0.9643v-10.23l-6.13 10.72c-0.17677 0.31449-0.50924 0.50938-0.87 0.51z"/>
 </g>
</svg>
